X:1
T:BOUND DOWN FOR NEWFOUNDLAND 2
M:6/8
L:1/8
K:F
 ED| C2 C F2 A,| B,2 C D2 C| D F2 F2 E| F3 zF-G| A2- AA-G F| G2 G A2 F/2F/2|\
 F2 F F2 A,| C3 zF-G| A2 A AGF| G2 G A2A/2-G/2| F2 F F2 A,| C3 z2F/2-E/2|\
 D2 C F2 A,| B,2 C D2C/2-B,/2| A,2 C F2 E| F3 z||
